X:1
T:Ach bleib bei uns, Herr Jesu Christ
T:Ach bleib bei uns, Herr Jesu Christ
T:BWV 253 O Stay with Us, Lord Jesus Christ
T:Johann Sebastian Bach
C:Johann Sebastian Bach
%%score 1 2 3 4
L:1/8
Q:1/4=96
M:4/4
K:A
V:1 treble 
V:2 treble 
V:3 bass 
V:4 bass 
V:1
 c2 | cd e2 c2 A2 | B2 c2 !fermata!d2 c2 | B2 A2 A3 B | c2 c2 BA B2 | !fermata!A6 c2 | %6
 B2 c2 A2 F2 | G2 A2 !fermata!B2 c2 | A2 A2 A3 B | c2 c2 BA B2 | !fermata!A8 |] %11
V:2
 A2 | A2 B2 A2 A2 | =GF E2 !fermata!F2 E2 | ED C2 F4 | E2 E2 E3 D | !fermata!C6 A2 | G2 G2 FE ^D2 | %7
 E3 ^D !fermata!E2 =F2 | C2 F2 E2 FG | A2 E2 E3 D | !fermata!C8 |] %11
V:3
 E2 | E2 E2 E2 ED | D2 A,2 !fermata!A,2 A,2 | G,2 A,2 D4 | CB, A,2 A,2 G,2 | !fermata!E,6 E2 | %6
 ED C2 C2 B,2 | B,2 A,2 !fermata!G,2 G,2 | A,2 D2 CDCB, | A,2 A,2 A,2 G,2 | !fermata!E,8 |] %11
V:4
 A,,2 | A,2 G,2 A,2 F,2 | =G,2 A,2 !fermata!D,2 A,,2 | E,2 F,E, D,E,F,G, | A,2 C,D, E,2 E,2 | %5
 !fermata!A,,6 A,,2 | E,2 =F,2 ^F,2 B,A, | G,2 F,2 !fermata!E,2 C,2 | F,E,F,G, A,B,A,G, | %9
 F,2 C,D, E,2 E,2 | !fermata!A,,8 |] %11

